X:2
T:The Sheep In The Boat
R:jig
M:6/8
L:1/8
K:Edor
|:D | B,EF GFE | ~F3 def | edB BAF | AFE FED |
| BEF G2 A | FEF d2 f | edB {d}BAF | AFE E2  :||
| A | B2 e ede | fef d2 f | edB BAF | AFE FGA |
| Bee ede | fef def | edB BAF | AFE EF/2G/2A |
| B2 e ede | ~f3 d2 f | edB BAF | AFE FED |
| B,EF GFE | ~F3 def | edB {d}BAF | AFE E2D ||

